X:26
T:T'as perdu tes gants
R:Maraichine
A:Poitou
O:France
M:2/4
L:1/8
Q:1/4=130
K:G
B>G B>d|B>A AG|BB BA/2G/2|B2A2:|
|:B>G B>A|(3GFE Dd|1d>c A>c|B2G2:|2d>c A>B|G2 z2||
